!!!!SEGMENT: pl-lzu--m-15111--001-027_noskowski-zygmunt--spiewnik-dla-dzieci-op-34-27-marzenie-chlopca.krn
!!!cenid: 18xx:4724
!!!COM: Noskowski, Zygmunt
!!!COM-rismID: pe106604
!!!CDT: 1846/05/02-1909/07/23
!!!CNT: Polish
!!!GTL: Śpiewnik dla dzieci, op. 34
!!!OTL: 27. Marzenie chłopca
!!!OMV: 027
!!!PDT: 1890
!!!AGN: Secular; Song; Children
!!!YEC: Copyright 2022 Narodowy Instytut Fryderyka Chopina (https://polishscores.org)
!!!YEM: License CC-BY-4.0 (https://creativecommons.org/licenses/by/4.0)
!!!SMS-siglum: PL-LŹu
!!!SMS-shelfmark: M 15111
!!!SMS-variant:
!!!SMS-altvar:
!!!SMS-shelfwork: 001-027 G
!!!NIFC-rismSourceID: 1001234040
!!!NIFC-rismChildID: 1001234040
!!!NIFC-islandoraID: pl-lzu:5455
!!!URL-pdf-islandora: https://repozytorium.nifc.pl/islandora/object/pl-lzu%3A5455/datastream/PDF/view
!!!URL-scan: https://polish.musicsources.pl/pl/lokalizacje/galeria/druki-muzyczne/23228/35 @EN{Scan on Polish Music Sources Website} @PL{Skany w portalu Dziedzictwo Muzyki Polskiej w otwartym dostępie}
!!!IIIF:
!!!ONB-nifc:
!!!AIN: 1 piano 1 vox
!!!key: f
!!!OMD: Poco allegro.
**kern	**kern	**dynam	**kern	**text	**text	**dynam
*part2	*part2	*part2	*part1	*part1	*part1	*part1
*staff3	*staff2	*staff2/3	*staff1	*staff1	*staff1	*staff1
*I"[Piano]	*I"[Piano]	*	*I"[Voice]	*	*	*
*I'pf	*I'pf	*	*I'V	*	*	*
*Ipiano	*Ipiano	*	*Ivox	*	*	*
*ICklav	*ICklav	*	*ICvox	*	*	*
*IGacmp	*IGacmp	*	*IGsolo	*	*	*
*>[A,A]	*>[A,A]	*>[A,A]	*>[A,A]	*>[A,A]	*>[A,A]	*>[A,A]
*>A	*>A	*>A	*>A	*>A	*>A	*>A
*clefF4	*clefG2	*	*clefG2	*	*	*
*k[b-e-a-d-]	*k[b-e-a-d-]	*	*k[b-e-a-d-]	*	*	*
*f:	*f:	*	*f:	*	*	*
*M2/4	*M2/4	*	*M2/4	*	*	*
!	!LO:TX:a:i:t=Trochę żwawo.	!LO:DY:rj	!	!	!	!
8C/	8c/	f	8r	.	.	.
=1	=1	=1	=1	=1	=1	=1
!	!LO:TX:c:i:t=marcato	!	!	!	!	!
4F\	4f/	.	2r	.	.	.
16G\LL	16g/LL	.	.	.	.	.
16A-\	16a-/	.	.	.	.	.
16F\	16f/	.	.	.	.	.
16A-\JJ	16a-/JJ	.	.	.	.	.
=2	=2	=2	=2	=2	=2	=2
4c\	4cc\	.	2r	.	.	.
8C/L	8c/L	.	.	.	.	.
16Dn/L	16dn/L	.	.	.	.	.
16En/JJ	16en/JJ	.	.	.	.	.
=3	=3	=3	=3	=3	=3	=3
16F\LL	16f/LL	.	2r	.	.	.
16G\J	16g/J	.	.	.	.	.
8A-\J	8a-/J	.	.	.	.	.
8G\L	8g/L	.	.	.	.	.
8GJ 8C^\	8enJ 8B-^/	.	.	.	.	.
=4	=4	=4	=4	=4	=4	=4
*	*	*	*	*v:1	*v:2	*
8A-L 8F^\	8fL 8c^/	.	4r	.	.	.
8B-J 8F\	(16d-/L	.	.	.	.	.
.	16e-/JJ	.	.	.	.	.
16A- 16F\	16f 16c/)	.	8r;	.	.	.
16r;	16r;	.	.	.	.	.
!	!	!LO:DY:rj	!	!	!	!LO:DY:rj
8c\	8cc\	f	8cc\	A	A	f
!!LO:PB:g=original
=5	=5	=5	=5	=5	=5	=5
*	*	*	*	*v:1	*v:2	*
4d-\	4dd-\	.	4dd-\	jak	jak	.
8c\L	8cc\L	.	8cc\	ja	ja	.
8B-\J	8b-\J	.	8b-\	u-	u-	.
=6	=6	=6	=6	=6	=6	=6
4A-\	4a-/	.	4a-/	-ro-	-ro-	.
4B-\	4b-/	.	4b-,/	-snę,	-snę,	.
=7	=7	=7	=7	=7	=7	=7
8c\L	8cc/L	.	8cc\	Sprzę-	Nie	.
8F\J	8f/J	.	8f/	-gnę	po-	.
8G\L	8g/L	.	8g/	woł-	-ską-	.
(16A-\L	(16a-/L	.	(16a-/LL	-ki	-pię	.
16G\JJ)	16g/JJ)	.	16g/JJ)	.	.	.
=8	=8	=8	=8	=8	=8	=8
8F\L	8f/L	.	8f/	si-	rę-	.
8F\J	8f/J	.	8f/	-we,	-ki,	.
4r	4r	.	4r	.	.	.
!!LO:LB:g=original
=9	=9	=9	=9	=9	=9	=9
*	*	*	*	*v:1	*v:2	*
4d- 4A- 4D-^\	4ff 4a- 4f^\	.	8.ff^\	Bę-	Bę-	.
.	.	.	16ee-\	-dę	-dę	.
4B- 4BB-\	4dd- 4g 4e-/	.	8dd-\	o-	ko-	.
.	.	.	8dd-\	-rał,	-sił	.
=10	=10	=10	=10	=10	=10	=10
4A- 4AA-\	8.ccL 8.a- 8.e-/	.	8.cc\	za-	buj-	.
.	16b-/Jk	.	16b-\	-o-	-ną	.
4r	8cc\L	.	8cc\	-ry-	ni-	.
.	8ee-\J	.	8ee-\	-wał	-wę	.
=11	=11	=11	=11	=11	=11	=11
4A- 4D-\	8a-L 8f/	.	8a-/	Tę	I	.
.	16b-/L	.	(16b-\LL	psze-	śpie-	.
.	16cc/JJ	.	16cc\JJ)	.	.	.
8A-L 8BB-\	8dd-L 8f/	.	8dd-\	-ni-	-wał	.
8GJ 8E-\	8b-J 8d-/	.	8b-\	-czną	pio-	.
=12	=12	=12	=12	=12	=12	=12
8A-L 8AA-/	8a-L 8c/	>	8a-/	ni-	-sen-	.
8E-J 8AA-/	8a-J 8c/	.	8a-/	-wę.	-ki.	.
8E-L 8AA-/	8a-L 8c/	.	4r	.	.	.
8E-J 8AA-/	8a-J 8c/	]	.	.	.	.
!!LO:LB:g=original
=13	=13	=13	=13	=13	=13	=13
*	*	*	*	*v:1	*v:2	*
!	!	!LO:DY:rj	!	!	!	!LO:DY:rj
8E-L 8AA-/	8b-L 8d-/	p	8b-/	A	Oj,	p
8E- 8AA-/	8e- 8d-/	.	8e-/	jak	ty	.
8E- 8AA-/	8b- 8d-/	.	8b-/	ja	buj-	.
8E-J 8AA-/	8e-J 8d-/	.	8e-/	u-	-na	.
=14	=14	=14	=14	=14	=14	=14
8E-L 8AA-/	8a-L 8c/	.	(8a-/	-ro-	ni-	.
8E- 8AA-^/	8a- 8c^/	.	4ee-^\)	.	.	.
8E- 8AA-/	8a- 8c/	.	.	.	.	.
8E-J 8AA-/	8a-J 8c/	.	8cc\	-snę,	-wo,	.
=15	=15	=15	=15	=15	=15	=15
8E-L 8AA-/	8b-L 8d-/	.	8b-/	We-	Ty	.
8E- 8AA-/	8e- 8d-/	.	8e-/	-zmę	psze-	.
8E- 8AA-/	8b- 8d-/	.	8b-/	zło-	-ni-	.
8E-J 8AA-/	8e-J 8d-/	.	8e-/	-te	-czne	.
=16	=16	=16	=16	=16	=16	=16
8E-L 8AA-/	8a-L 8c/	.	(8a-/	ziar-	po-	.
8E- 8AA-^/	8f 8c^/	.	4f^>/)	.	.	.
8E- 8AA-/	8f 8c/	.	.	.	.	.
8E-J 8AA-/	8e-J 8c/	.	8e-/	-no,	-le,	.
!!LO:PB:g=original
=17	=17	=17	=17	=17	=17	=17
*	*	*	*	*v:1	*v:2	*
4D-\	8.fL 8.d-/	<	8.f/	Bę-	Nie	<
.	16e-/Jk	.	16e-/	-dę	żal	.
8D-\L	8fL 8d-/	.	8f/	sie-	to-	.
8E-J 8D-\	8gJ 8d-/	[	8g/	-wał	-bie	[
=18	=18	=18	=18	=18	=18	=18
8F 8D-\	8a-L 8d-/	.	8a-/	wcze-	pra-	.
8r	8g/J	.	8g/	-sną	-cy	.
8FL 8D-\	8a-L 8d-/	.	8a-/	wio-	na-	.
8GJ 8D-\	8b-J 8f/	.	8b-/	-sną,	-szej,	.
=19	=19	=19	=19	=19	=19	=19
8A- 8C\	8ccL 8f/	.	8cc\	Zie-	Ni	.
8r	(16b-/L	>	(16b-/LL	-mię	po-	>
.	16a-/JJ)	.	16a-/JJ)	.	.	.
8B- 8C\	8gL 8en/	.	8g/	na-	-tu	.
8r	8e/J	]	8en/	-szą	na	]
=20	=20	=20	=20	=20	=20	=20
!	!LO:TX:c:i:t=riten.	!	!LO:TX:a:i:t=riten.	!	!	!LO:DY:rj
(8A-L 8F\	(8fL 8c/	.	(8f/L	czar-	czo-	p
8FJ 8BB-\	8a-J 8d-/	.	8a-/J)	.	.	.
8A- 8F\)	8f 8c/)	.	8f/	-ną.	-le!	.
8r	8r	.	8r	.	.	.
=:|!	=:|!	=:|!	=:|!	=:|!	=:|!	=:|!
*-	*-	*-	*-	*-	*-	*-
!!!system-decoration: p1{p2}
!!!RDF**kern: > = above
!!!RDF**kern: < = below
!!!ENC: Andrzej Gręziak
!!!END: 2025-03-05
!!!ENC: Marta Lawrence
!!!END: 2025-03-22
